assets/fc/fc-display.svg

<svg xmlns="http://www.w3.org/2000/svg" width="100%" height="100%" viewBox="0 0 48 48"><path fill="#80DEEA" d="M40 41H8c-2.2 0-4-1.8-4-4V11c0-2.2 1.8-4 4-4h32c2.2 0 4 1.8 4 4v26c0 2.2-1.8 4-4 4z"/><g fill="#2962FF"><path d="M36 17h-5l-2-2 2-2h5l2 2zM36 35h-5l-2-2 2-2h5l2 2zM37 30V18l2-2 2 2v12l-2 2zM26 30V18l2-2 2 2v12l-2 2zM17 17h-5l-2-2 2-2h5l2 2zM17 35h-5l-2-2 2-2h5l2 2zM18 30V18l2-2 2 2v12l-2 2zM7 30V18l2-2 2 2v12l-2 2z"/></g></svg>

<svg xmlns="http://www.w3.org/2000/svg" width="100%" height="100%" viewBox="0 0 48 48"><path fill="#80DEEA" d="M40,41H8c-2.2,0-4-1.8-4-4V11c0-2.2,1.8-4,4-4h32c2.2,0,4,1.8,4,4v26C44,39.2,42.2,41,40,41z"/><g fill="#2962FF"><path d="M36 17L31 17 29 15 31 13 36 13 38 15zM36 35L31 35 29 33 31 31 36 31 38 33zM37 30L37 18 39 16 41 18 41 30 39 32zM26 30L26 18 28 16 30 18 30 30 28 32zM17 17L12 17 10 15 12 13 17 13 19 15zM17 35L12 35 10 33 12 31 17 31 19 33zM18 30L18 18 20 16 22 18 22 30 20 32zM7 30L7 18 9 16 11 18 11 30 9 32z"/></g></svg>
